src/assets/icons/map-marker.svg

<svg width="14" height="14" viewBox="0 0 14 14" fill="none" xmlns="http://www.w3.org/2000/svg">
<g id="map-marker">
<g clip-path="url(#clip0_156_4539)">
<path id="Vector" fill-rule="evenodd" clip-rule="evenodd" d="M6.6867 13.9054C6.78129 13.9682 6.89027 14 7 14C7.10973 14 7.2187 13.9682 7.31329 13.9054C7.54032 13.7556 12.8649 10.1784 12.8649 5.83005C12.8649 2.61535 10.2336 0 7 0C3.76638 0 1.13513 2.61535 1.13513 5.83005C1.13513 10.1784 6.45967 13.7556 6.6867 13.9054ZM2.27027 5.83005C2.27027 3.24119 4.39221 1.13514 7 1.13514C9.60778 1.13514 11.7297 3.24119 11.7297 5.83005C11.7297 9.016 8.10259 11.9257 7 12.7362C5.8974 11.9257 2.27027 9.016 2.27027 5.83005ZM4.91892 5.48649C4.91892 6.63449 5.852 7.56757 7 7.56757C8.148 7.56757 9.08108 6.63449 9.08108 5.48649C9.08108 4.33849 8.148 3.40541 7 3.40541C5.852 3.40541 4.91892 4.33849 4.91892 5.48649ZM6.05405 5.48649C6.05405 4.96508 6.47859 4.54054 7 4.54054C7.52216 4.54054 7.94594 4.96508 7.94594 5.48649C7.94594 6.00789 7.5214 6.43243 7 6.43243C6.47859 6.43243 6.05405 6.00789 6.05405 5.48649Z" fill="black"/>
</g>
</g>
<defs>
<clipPath id="clip0_156_4539">
<rect width="14" height="14" fill="white"/>
</clipPath>
</defs>
</svg>

<svg xmlns="http://www.w3.org/2000/svg" fill="none" viewBox="0 0 14 14"><g clip-path="url(#a)"><path fill="#000" fill-rule="evenodd" d="M6.687 13.905a.57.57 0 0 0 .626 0c.227-.15 5.552-3.727 5.552-8.075C12.865 2.615 10.234 0 7 0S1.135 2.615 1.135 5.83c0 4.348 5.325 7.926 5.552 8.075M2.27 5.83c0-2.589 2.122-4.695 4.73-4.695s4.73 2.106 4.73 4.695c0 3.186-3.627 6.096-4.73 6.906-1.103-.81-4.73-3.72-4.73-6.906m2.649-.344c0 1.148.933 2.082 2.081 2.082a2.083 2.083 0 0 0 2.081-2.082A2.083 2.083 0 0 0 7 3.406a2.083 2.083 0 0 0-2.081 2.08m1.135 0A.947.947 0 1 1 7 6.432a.947.947 0 0 1-.946-.946" clip-rule="evenodd"/></g><defs><clipPath id="a"><path fill="#fff" d="M0 0h14v14H0z"/></clipPath></defs></svg>
